X:1
T:They Crucified Him
T:They Crucified Him
T:John Marchant Whyte
T:John Marchant Whyte, 1889
T:Public Domain Courtesy of the Cyber Hymnal™
T:Public Domain Courtesy of the Cyber Hymnal™
C:John Marchant Whyte
Z:Public Domain
Z:Courtesy of the Cyber Hymnal™
%%score ( 1 2 ) ( 3 4 )
L:1/8
Q:1/4=120
M:6/4
K:Eb
V:1 treble 
V:2 treble 
V:3 bass 
V:4 bass 
V:1
 E2 | [EG]3 [DF] [EG]2 [FA]4 [FA]2 | [FA]3 [EG] [FA]2 [GB]4 [GB]2 | %3
w: 1.~Come,|sin- ner, be- hold what|Je- sus hath done, Be-|
w: 2.~From|Hea- ven He came, He|loved you— He died: Such|
w: 3.~No|pi- ty- ing eye, a|sav- ing arm, none. He|
w: 4.~They|cru- ci- fied Him, and|yet He for- gave, “My|
w: 5.~So|what will you do with|Je- sus your king? Say,|
 [Ac]3 A [Ac]2 [Ac]3 [Ad] [Ae]2 | [GB]6- [GB]4 [EG]2 | [GB]3 [FA] [FA]2 [FA]4 [DF]2 | %6
w: hold how He suf- fered for|thee: * They|cru- ci- fied Him, God’s|
w: love as His nev- er was|known; * Be-|hold, on the cross your|
w: saw us and pi- tied us|then; * A-|lone in the fight, the|
w: Fa- ther, for- give them!” He|cried; * What|must He have borne, the|
w: how will you meet Him at|last? * What|plea in the day of|
 [FA]3 [EG] [EG]2 [EG]4 [EG]2 | [EG]2 [DF]2 [DF]2 [DA]2 [B,A]2 [B,D]2 | [B,E]6 || %9
w: in- no- cent Son, For-|sak- en, He died on the|tree.|
w: king cru- ci- fied, To|make you an heir to His|throne.|
w: vic- tory He won; O|praise Him, ye child- ren of|men!|
w: sin- ner to save, When|un- der the bur- den He|died.|
w: wrath will you bring, When|of- fers of mer- cy are|past?|
"^Refrain" ([Ge]4 [Bd]2) | [Ac]3 [Ac] [Ac]2 [Ac]4 [Ac]2 | [Ac]3 [GB] [GB]2 [GB]4 [GB]2 | %12
w: |||
w: |||
w: They *|cru- ci- fied Him, they|cru- ci- fied Him, They|
w: |||
w: |||
 [AB]4 [AB]2 [AB]4 [DA]2 | [EG]6- [EG]4 [DF][DF] | [FA]4 [DF]2 [FA]4 ([EG][FA]) | %15
w: |||
w: |||
w: nailed Him to the|tree. * And so|there He died, a *|
w: |||
w: |||
 !fermata![GB]2 [GB]3 [EG] [GB]4 [GB]2 | [GB]3 [EG] [GB]2 [GB] [FA]3 [B,F]2 | E6- [B,E]4 |] %18
w: |||
w: |||
w: king cru- ci- fied, To|save a poor sin- ner like|me. *|
w: |||
w: |||
V:2
 E2 | x12 | x12 | x3 A x8 | x12 | x12 | x12 | x12 | x6 || x6 | x12 | x12 | x12 | x12 | x12 | x12 | %16
 x12 | B,4 C2 x4 |] %18
V:3
 [E,G,]2 | [E,B,]3 [E,B,] [E,B,]2 [B,,B,]4 [B,,B,]2 | [B,,B,]3 [B,,B,] [B,,B,]2 [E,B,]4 [E,E]2 | %3
 [A,E]3 [A,C] [A,E]2 [E,E]3 [E,D] [E,C]2 | [E,E]6- [E,E]4 [E,B,]2 | %5
 [B,,B,]3 [B,,B,] [B,,B,]2 [B,,B,]4 [B,,B,]2 | [E,B,]3 [E,B,] [E,B,]2 [E,B,]4 [E,B,]2 | %7
 [B,,B,]2 [B,,B,]2 [B,,B,]2 [B,,F,]2 [B,,F,]2 [B,,A,]2 | [E,G,]6 || (B,4 E2) | %10
 [A,E]3 [A,E] [A,E]2 [A,E]4 [A,E]2 | [E,E]3 [E,E] [E,E]2 [E,E]4 [E,E]2 | %12
 [B,D]4 [B,D]2 [B,D]4 [B,,B,]2 | [E,B,]6- [E,B,]4 [B,,B,][B,,B,] | %14
 [B,,B,]4 [B,,B,]2 [B,,B,]4 [B,,B,]2 | !fermata![E,E]2 [E,E]3 [E,E] [E,E]4 [E,E]2 | %16
 [E,E]3 [E,B,] [E,B,]2 [B,,B,] [B,,B,]3 [B,,A,]2 | (G,4 A,2 [E,G,]4) |] %18
V:4
 x2 | x12 | x12 | x12 | x12 | x12 | x12 | x12 | x6 || E,6 | x12 | x12 | x12 | x12 | x12 | x12 | %16
 x12 | E,6- x4 |] %18

